X:3
T:Dream Valley of Glendaruel
T:Thirds
R:March
C:John MacLellan
O:Dunoon, UK
M:3/4
L:1/8
Q:"80 bpm"
K:D
[|: A>B A2 d2 | A2 d2 f2 | e>f B2 G2 | A6 |
A4 d2 | f>e dc A2- | A2 G2 BG | A6 :|]
[|: d>c B4 | B2 A2 A2 | d2 d2 A2 | G2 A2 a2 | 
d2 B2 c2- | c4 B2- | B2 G2 BG | A6 :|]

